svgs/light/arrows-split-up-and-left.svg

<svg xmlns="http://www.w3.org/2000/svg" viewBox="0 0 512 512"><!--! Font Awesome Pro 6.4.0 by @fontawesome - https://fontawesome.com License - https://fontawesome.com/license (Commercial License) Copyright 2023 Fonticons, Inc. --><path d="M235.3 123.3c-6.2 6.2-16.4 6.2-22.6 0s-6.2-16.4 0-22.6l96-96c6.2-6.2 16.4-6.2 22.6 0l96 96c6.2 6.2 6.2 16.4 0 22.6s-16.4 6.2-22.6 0L336 54.6V384v16c0 44.2 35.8 80 80 80h80c8.8 0 16 7.2 16 16s-7.2 16-16 16H416c-61.9 0-112-50.1-112-112V384c0-44.2-35.8-80-80-80H54.6l68.7 68.7c6.2 6.2 6.2 16.4 0 22.6s-16.4 6.2-22.6 0l-96-96c-3-3-4.7-7.1-4.7-11.3s1.7-8.3 4.7-11.3l96-96c6.2-6.2 16.4-6.2 22.6 0s6.2 16.4 0 22.6L54.6 272H224c31.3 0 59.7 12.9 80 33.6V54.6l-68.7 68.7z"/></svg>

<svg xmlns="http://www.w3.org/2000/svg" viewBox="0 0 512 512"><!--! Font Awesome Pro 6.3.0 by @fontawesome - https://fontawesome.com License - https://fontawesome.com/license (Commercial License) Copyright 2023 Fonticons, Inc. --><path d="M235.3 123.3C229.1 129.6 218.9 129.6 212.7 123.3C206.4 117.1 206.4 106.9 212.7 100.7L308.7 4.686C314.9-1.562 325.1-1.562 331.3 4.686L427.3 100.7C433.6 106.9 433.6 117.1 427.3 123.3C421.1 129.6 410.9 129.6 404.7 123.3L336 54.63V400C336 444.2 371.8 480 416 480H496C504.8 480 512 487.2 512 496C512 504.8 504.8 512 496 512H416C354.1 512 304 461.9 304 400V384C304 339.8 268.2 304 224 304H54.63L123.3 372.7C129.6 378.9 129.6 389.1 123.3 395.3C117.1 401.6 106.9 401.6 100.7 395.3L4.686 299.3C1.686 296.3 0 292.2 0 288C0 283.8 1.686 279.7 4.686 276.7L100.7 180.7C106.9 174.4 117.1 174.4 123.3 180.7C129.6 186.9 129.6 197.1 123.3 203.3L54.63 272H224C255.3 272 283.7 284.9 304 305.6V54.63L235.3 123.3z"/></svg>
